imgs/IndiaFlag.svg

<svg width="24" height="18" viewBox="0 0 24 18" fill="none" xmlns="http://www.w3.org/2000/svg">
<path d="M0.5 0.5H23.5V17.5H0.5V0.5Z" fill="white" stroke="#F5F2E9"/>
<path d="M1 1H23V6H1V1Z" fill="#FF9933"/>
<path d="M1 12H23V17H1V12Z" fill="#128807"/>
<path d="M11.9986 11.4001C13.3241 11.4001 14.3986 10.3256 14.3986 9.0001C14.3986 7.67461 13.3241 6.6001 11.9986 6.6001C10.6731 6.6001 9.59863 7.67461 9.59863 9.0001C9.59863 10.3256 10.6731 11.4001 11.9986 11.4001Z" fill="#000088"/>
<path d="M11.9984 11.0999C13.1582 11.0999 14.0984 10.1597 14.0984 8.9999C14.0984 7.8401 13.1582 6.8999 11.9984 6.8999C10.8386 6.8999 9.89844 7.8401 9.89844 8.9999C9.89844 10.1597 10.8386 11.0999 11.9984 11.0999Z" fill="white"/>
<path d="M11.9981 9.42008C12.2301 9.42008 12.4181 9.23204 12.4181 9.00008C12.4181 8.76812 12.2301 8.58008 11.9981 8.58008C11.7662 8.58008 11.5781 8.76812 11.5781 9.00008C11.5781 9.23204 11.7662 9.42008 11.9981 9.42008Z" fill="#000088"/>
<path d="M14.0662 9.38157C14.1253 9.38936 14.1796 9.34773 14.1874 9.28859C14.1951 9.22945 14.1535 9.1752 14.0944 9.16742C14.0352 9.15963 13.981 9.20126 13.9732 9.2604C13.9654 9.31954 14.007 9.37379 14.0662 9.38157Z" fill="#000088"/>
<path d="M11.9988 11.0997L12.0708 9.83975L11.9988 9.23975L11.9268 9.83975L11.9988 11.0997Z" fill="#000088"/>
</svg>

<svg width="24" height="18" fill="none" xmlns="http://www.w3.org/2000/svg"><path d="M.5.5h23v17H.5V.5z" fill="#fff" stroke="#F5F2E9"/><path d="M1 1h22v5H1V1z" fill="#F93"/><path d="M1 12h22v5H1v-5z" fill="#128807"/><path d="M11.999 11.4a2.4 2.4 0 100-4.8 2.4 2.4 0 000 4.8z" fill="#008"/><path d="M11.998 11.1a2.1 2.1 0 100-4.2 2.1 2.1 0 000 4.2z" fill="#fff"/><path d="M11.998 9.42a.42.42 0 100-.84.42.42 0 000 .84zm2.068-.038a.108.108 0 10.028-.215.108.108 0 00-.028.215z" fill="#008"/><path d="M11.999 11.1l.072-1.26-.072-.6-.072.6.072 1.26z" fill="#008"/></svg>
